src/input/input_example.ti2
CTI2   

DESCRIPTOR "Argyll Calibration Target chart information 2"
ORIGINATOR "Argyll printtarg"
CREATED "Mon Sep 15 09:01:58 2025"
TARGET_INSTRUMENT "GretagMacbeth i1 Pro"
COMP_GREY_STEPS "16"
APPROX_WHITE_POINT "95.106486 100.000000 108.844025"
COLOR_REP "iRGB"
PAPER_SIZE "220.0x240.0"
CHART_ID "46"
STEPS_IN_PASS "19"
PASSES_IN_STRIPS2 "12"
STRIP_INDEX_PATTERN "A-Z, A-Z"
PATCH_INDEX_PATTERN "0-9,@-9,@-9;1-999"
INDEX_ORDER "STRIP_THEN_PATCH"

NUMBER_OF_FIELDS 8
BEGIN_DATA_FORMAT
SAMPLE_ID SAMPLE_LOC RGB_R RGB_G RGB_B XYZ_X XYZ_Y XYZ_Z 
END_DATA_FORMAT

NUMBER_OF_SETS 228
BEGIN_DATA
1 "A1" 0.00000 0.00000 0.00000 1.000000 1.000000 1.000000 
2 "A2" 67.11528 76.88258 54.91417 41.90331 50.57011 32.99722 
3 "A3" 82.96941 90.29068 12.22400 56.09015 71.05460 12.91645 
4 "A4" 100.0000 100.0000 100.0000 95.10649 100.0000 108.8440 
5 "A5" 37.59976 13.49813 87.94690 19.69820 9.954166 71.76616 
6 "A6" 86.66667 86.66667 86.66667 69.04418 72.58246 78.97718 
7 "A7" 80.00000 80.00000 80.00000 57.82407 60.77891 66.11917 
8 "A8" 73.33333 73.33333 73.33333 47.76462 50.19637 54.59125 
9 "A9" 66.66667 66.66667 66.66667 38.82872 40.79580 44.35090 
10 "A10" 60.00000 60.00000 60.00000 30.97732 32.53613 35.35337 
11 "A11" 53.33333 53.33333 53.33333 24.16914 25.37393 27.55134 
12 "A12" 46.66667 46.66667 46.66667 18.36029 19.26302 20.89453 
13 "A13" 40.00000 40.00000 40.00000 13.50377 14.15396 15.32905 
14 "A14" 33.33333 33.33333 33.33333 9.548794 9.993329 10.79674 
15 "A15" 26.66667 26.66667 26.66667 6.439866 6.722738 7.233970 
16 "A16" 20.00000 20.00000 20.00000 4.115373 4.277372 4.570151 
17 "A17" 13.33333 13.33333 13.33333 2.505355 2.583633 2.725105 
18 "A18" 6.666667 6.666667 6.666667 1.527504 1.554934 1.604508 
19 "A19" 0.00000 100.0000 0.00000 36.40521 71.80052 12.80184 
20 "B1" 0.00000 0.00000 100.0000 18.87111 8.147314 95.12896 
21 "B2" 100.0000 0.00000 100.0000 59.70128 29.19948 97.04219 
22 "B3" 100.0000 100.0000 0.00000 77.23538 92.85269 14.71507 
23 "B4" 100.0000 0.00000 0.00000 41.83017 22.05217 2.913230 
24 "B5" 0.00000 100.0000 100.0000 54.27632 78.94783 106.9308 
25 "B6" 0.00000 51.20623 100.0000 26.85077 24.10441 97.78887 
26 "B7" 100.0000 50.20218 0.00000 49.47468 37.33905 5.461421 
27 "B8" 100.0000 0.00000 50.73014 45.77721 23.63073 23.70267 
28 "B9" 0.00000 100.0000 50.74235 40.35425 73.37988 33.60183 
29 "B10" 51.23064 100.0000 0.00000 45.61694 76.55011 13.23348 
30 "B11" 49.15236 0.00000 100.0000 27.29363 12.49000 95.52362 
31 "B12" 0.00000 22.07370 0.00000 2.413998 3.827601 1.471337 
32 "B13" 0.00000 0.00000 74.38010 10.16632 4.665949 49.27995 
33 "B14" 100.0000 68.10407 100.0000 74.62303 59.03882 102.0162 
34 "B15" 49.54299 0.00000 0.00000 9.567615 5.417490 1.401464 
35 "B16" 100.0000 100.0000 76.33173 86.94846 96.73731 65.87488 
36 "B17" 69.60708 100.0000 100.0000 72.33979 88.26142 107.7772 
37 "B18" 0.00000 0.00000 23.64843 1.815539 1.326164 5.295526 
38 "B19" 100.0000 100.0000 51.25505 81.27143 94.46685 35.97335 
39 "C1" 100.0000 33.88113 100.0000 63.02766 35.85132 98.15099 
40 "C2" 0.00000 25.20180 48.02777 6.337180 6.062301 20.08218 
41 "C3" 49.93973 75.67407 0.00000 28.59056 43.23705 7.699836 
42 "C4" 47.15496 0.00000 24.48310 9.575256 5.320487 5.957576 
43 "C5" 72.69703 100.0000 28.01099 57.44370 82.51620 19.73738 
44 "C6" 53.83078 28.06134 100.0000 31.39470 17.96751 96.36495 
45 "C7" 100.0000 73.37758 47.93469 62.94016 58.67937 27.18000 
46 "C8" 0.00000 49.08522 0.00000 8.282023 15.56201 3.427361 
47 "C9" 35.64355 100.0000 100.0000 58.53724 81.14478 107.1305 
48 "C10" 50.42496 100.0000 74.79057 54.58563 80.10104 62.09670 
49 "C11" 42.88701 55.74884 100.0000 34.75964 30.58755 98.62376 
50 "C12" 0.00000 69.91836 76.83986 26.67866 36.57868 58.19912 
51 "C13" 24.22827 0.00000 0.00000 2.953427 2.007193 1.091534 
52 "C14" 24.46784 100.0000 0.00000 38.39664 72.82730 12.89515 
53 "C15" 75.72747 0.00000 73.17311 31.63743 15.77458 48.56858 
54 "C16" 0.00000 100.0000 76.27222 46.10135 75.67836 63.87240 
55 "C17" 0.00000 72.09430 26.12802 18.92998 35.26792 11.87112 
56 "C18" 100.0000 38.59159 50.86748 50.16256 32.36311 25.27893 
57 "C19" 74.51743 0.00000 100.0000 39.90005 18.98991 96.11434 
58 "D1" 0.00000 26.23178 100.0000 20.85198 12.10851 95.78926 
59 "D2" 25.78622 0.00000 72.48035 11.85990 5.598687 46.67305 
60 "D3" 100.0000 76.49195 0.00000 61.16349 60.71340 9.357724 
61 "D4" 37.13436 100.0000 25.31930 41.97813 74.56610 17.92953 
62 "D5" 61.05898 26.49577 0.00000 16.53730 12.01004 2.306936 
63 "D6" 0.00000 77.77218 100.0000 38.93756 48.27460 101.8178 
64 "D7" 100.0000 0.00000 26.02121 42.81421 22.44572 8.096249 
65 "D8" 100.0000 25.25063 0.00000 43.66728 25.72588 3.525606 
66 "D9" 24.52277 48.41840 0.00000 10.07025 16.16959 3.450460 
67 "D10" 25.30251 72.90455 0.00000 20.49275 36.82311 6.888257 
68 "D11" 100.0000 100.0000 26.01511 78.21890 93.24603 19.89540 
69 "D12" 0.00000 50.12436 34.90349 10.40430 16.94949 12.94424 
70 "D13" 100.0000 0.00000 77.64248 51.92092 26.08783 56.06226 
71 "D14" 0.00000 100.0000 26.43168 37.42027 72.20648 18.14825 
72 "D15" 25.38796 0.00000 47.00237 6.489041 3.442935 18.73375 
73 "D16" 100.0000 78.60685 76.28748 72.08284 67.03032 60.85763 
74 "D17" 24.33509 0.00000 100.0000 20.84140 9.163205 95.22128 
75 "D18" 64.02228 100.0000 51.18639 55.43622 81.14748 34.70226 
76 "D19" 81.65560 47.05272 100.0000 51.33493 34.75209 98.55465 
77 "E1" 36.52247 38.75639 86.95659 22.90373 17.32017 71.25295 
78 "E2" 0.00000 75.44518 0.00000 19.74630 38.48737 7.248820 
79 "E3" 24.31983 81.55337 100.0000 43.16189 53.80164 102.6622 
80 "E4" 100.0000 28.20630 28.29786 45.28308 27.09609 9.803406 
81 "E5" 75.96857 100.0000 0.00000 58.36089 83.12094 13.83064 
82 "E6" 38.01938 88.14679 40.23651 34.87777 57.66418 22.75815 
83 "E7" 0.00000 48.55268 65.68551 15.06403 18.00303 39.98572 
84 "E8" 0.00000 28.62135 22.69932 4.111165 6.016475 5.753263 
85 "E9" 73.69345 46.68040 30.15335 29.37116 25.17475 11.10539 
86 "E10" 100.0000 24.76997 72.24537 52.18834 29.02449 48.74391 
87 "E11" 60.41352 13.64614 69.07759 22.56668 12.09511 42.75758 
88 "E12" 40.04273 60.38148 65.83963 24.86158 29.46797 41.87323 
89 "E13" 72.30488 0.00000 24.06958 21.50425 11.47443 6.367092 
90 "E14" 64.38849 58.98222 100.0000 44.93008 37.70377 99.46174 
91 "E15" 21.55032 0.00000 24.32288 3.418893 2.147540 5.610695 
92 "E16" 33.38827 23.15251 49.40261 9.999281 7.509857 21.32261 
93 "E17" 0.00000 74.63493 52.29114 23.51472 39.27983 29.30147 
94 "E18" 28.19104 100.0000 49.97635 42.86403 74.68871 33.05256 
95 "E19" 67.70428 69.28969 38.60227 35.69385 41.64523 18.56870 
96 "F1" 27.68444 68.17578 29.99313 19.80876 32.74461 12.99581 
97 "F2" 75.79309 0.00000 0.00000 22.84249 12.26206 2.023501 
98 "F3" 100.0000 53.64767 72.91371 59.42682 43.21421 52.03638 
99 "F4" 40.83009 23.79339 0.00000 8.300699 7.190803 1.810491 
100 "F5" 83.78119 40.87587 61.70748 39.33281 27.37261 35.81822 
101 "F6" 75.46197 73.31807 0.00000 40.21497 47.31872 7.875482 
102 "F7" 49.28359 50.35477 0.00000 17.16603 20.75568 3.961987 
103 "F8" 60.92470 42.44450 67.19463 27.09540 21.52510 41.91342 
104 "F9" 79.46746 22.02792 100.0000 44.56665 23.48632 96.73650 
105 "F10" 100.0000 63.45769 25.16213 55.51149 47.93779 12.01707 
106 "F11" 24.10468 100.0000 77.91409 48.50928 76.86508 66.45927 
107 "F12" 27.10613 28.27649 100.0000 23.61059 14.00613 96.01026 
108 "F13" 77.13436 100.0000 73.95438 68.17270 87.13319 61.53203 
109 "F14" 50.36851 80.83314 100.0000 49.63270 56.48365 102.8391 
110 "F15" 0.00000 28.01099 74.52659 12.46471 9.197317 50.24584 
111 "F16" 80.34333 80.13275 100.0000 65.22229 63.89328 103.4483 
112 "F17" 0.00000 0.00000 50.52873 4.913108 2.564996 21.61074 
113 "F18" 63.77050 41.42214 13.28908 21.22509 18.91195 4.882693 
114 "F19" 8.528267 39.25536 14.29465 6.165742 10.33663 4.219087 
115 "G1" 76.01740 0.00000 48.09796 26.50527 13.74369 20.55975 
116 "G2" 74.19852 52.23468 0.00000 30.15944 28.39911 4.753052 
117 "G3" 58.15061 82.64591 27.94995 37.27813 53.70996 15.21284 
118 "G4" 50.94835 0.00000 48.97841 13.76040 7.156167 20.69493 
119 "G5" 93.16854 86.66819 33.29976 62.99162 70.77059 19.69647 
120 "G6" 85.76791 33.77584 36.64607 35.11687 23.26715 13.85967 
121 "G7" 56.63844 57.07637 32.10498 24.07162 27.72289 12.82197 
122 "G8" 36.22339 82.87633 85.06294 40.94130 54.51208 74.17542 
123 "G9" 80.20294 92.73213 58.15366 60.94123 75.56365 40.10065 
124 "G10" 47.97894 27.89197 74.75853 20.50437 13.30656 50.95165 
125 "G11" 71.37255 29.32784 56.78187 27.62068 17.81816 29.29087 
126 "G12" 20.89723 54.21988 100.0000 29.37526 26.97315 98.20966 
127 "G13" 53.09682 14.88060 39.20806 13.91701 8.412681 13.68518 
128 "G14" 42.87785 46.67430 73.07546 22.63007 20.83017 49.88236 
129 "G15" 20.75074 24.32288 0.00000 4.155960 5.160335 1.636847 
130 "G16" 20.66072 77.51278 52.71839 26.64365 43.28357 30.30338 
131 "G17" 13.24788 38.08347 69.59792 13.79287 12.97838 44.07685 
132 "G18" 10.51194 38.03159 40.88502 8.159853 10.68268 15.52923 
133 "G19" 87.04204 50.91783 47.94690 42.18833 33.53084 23.42944 
134 "H1" 50.04807 0.00000 76.04181 19.38829 9.367105 52.13667 
135 "H2" 54.59220 69.87411 83.20134 39.16052 42.75825 68.84130 
136 "H3" 81.04067 26.43168 0.00000 28.39173 18.10762 2.859595 
137 "H4" 69.96262 30.48753 40.73091 24.41581 16.76435 15.74392 
138 "H5" 13.43862 11.37713 86.90471 15.09927 7.411716 69.65921 
139 "H6" 79.02037 27.09087 18.96239 27.62967 17.80277 5.648362 
140 "H7" 77.43191 52.92897 73.25399 41.34760 33.50318 51.59352 
141 "H8" 40.69734 73.37301 53.87655 28.73990 40.92541 30.82643 
142 "H9" 20.07782 44.43580 87.72717 21.52396 18.77424 72.97834 
143 "H10" 73.39895 75.49859 22.30869 40.83443 49.32011 12.04805 
144 "H11" 13.35012 46.45151 55.65881 12.95027 16.20078 28.61997 
145 "H12" 10.62486 22.99535 33.13649 4.583873 4.933264 9.978289 
146 "H13" 40.71717 35.24224 11.75555 10.47309 11.21339 3.687383 
147 "H14" 61.38094 12.88624 88.80293 28.86114 14.57961 73.72745 
148 "H15" 95.65118 39.50103 74.66850 51.73343 32.88815 52.95520 
149 "H16" 24.47547 57.61654 77.48226 23.35480 26.67797 57.43592 
150 "H17" 40.00458 58.31693 17.38613 17.47797 25.16776 7.189886 
151 "H18" 31.20470 84.18402 20.08087 28.81219 50.85472 12.28375 
152 "H19" 91.35271 62.60777 10.05875 46.82047 42.98628 7.638851 
153 "I1" 85.65957 76.53620 43.24865 51.91430 55.65800 23.55795 
154 "I2" 61.35195 18.82506 13.24788 15.98964 10.24929 3.478429 
155 "I3" 62.95872 56.09216 82.11032 36.63334 32.49043 65.18516 
156 "I4" 95.51843 19.87335 53.62783 43.40180 24.06629 26.56417 
157 "I5" 28.28412 26.88029 72.75654 14.46023 10.01688 47.77702 
158 "I6" 55.27886 85.62905 46.68956 40.08200 57.74339 27.19628 
159 "I7" 64.77150 86.71244 7.388418 42.14236 60.23823 10.87090 
160 "I8" 93.36995 63.14183 61.23293 54.51432 46.63362 38.20167 
161 "I9" 19.41405 87.90417 38.63127 30.91748 55.39898 21.49394 
162 "I10" 61.17952 42.19730 91.82116 34.56796 24.42297 80.94685 
163 "I11" 9.845121 87.62036 6.160067 27.73022 53.71530 10.24200 
164 "I12" 69.39498 30.96818 79.05699 32.21513 19.98437 58.10747 
165 "I13" 10.95140 7.791257 38.45884 3.903561 2.608368 12.61840 
166 "I14" 66.22263 12.87709 53.14412 22.07130 12.15193 24.93180 
167 "I15" 47.86755 93.12428 60.28840 44.82538 67.62886 41.71461 
168 "I16" 70.76371 12.92134 36.90394 22.28090 12.53766 12.61816 
169 "I17" 84.68452 14.59678 66.78111 36.89485 19.65565 40.51511 
170 "I18" 37.90799 88.34516 3.775082 32.63046 56.97708 10.41309 
171 "I19" 31.89593 41.22072 57.04128 14.49615 14.80927 29.66521 
172 "J1" 32.20569 86.44236 67.21294 37.22124 56.60138 48.17416 
173 "J2" 48.90517 70.19303 38.85100 27.52356 38.10205 18.47260 
174 "J3" 34.47471 12.25757 35.48638 7.315725 4.772480 11.08328 
175 "J4" 14.88518 78.64805 75.67254 31.89250 46.36444 58.07120 
176 "J5" 66.91234 81.60678 90.10605 54.01180 59.87874 83.54299 
177 "J6" 25.07210 38.83421 18.38865 8.015130 11.11852 5.235440 
178 "J7" 11.98444 74.79973 15.70306 20.31586 38.20765 9.156542 
179 "J8" 55.33379 32.46815 29.24849 16.18229 13.20608 9.075091 
180 "J9" 12.23163 12.61006 63.75677 8.588730 4.925212 35.47634 
181 "J10" 0.00000 0.00000 0.00000 1.000000 1.000000 1.000000 
182 "J11" 84.78523 60.97505 34.56779 42.53231 39.55445 15.42942 
183 "J12" 14.16495 68.40009 89.39803 30.65079 37.04529 79.05709 
184 "J13" 89.87411 56.43244 91.85473 57.64484 43.13489 83.40924 
185 "J14" 94.37858 79.37285 17.19692 58.25379 61.64114 12.03552 
186 "J15" 89.19509 14.66850 36.54383 35.13613 19.36425 13.04544 
187 "J16" 100.0000 50.48447 36.05859 51.47866 38.29017 15.55507 
188 "J17" 54.55863 92.74434 89.06233 55.14527 71.61456 83.82666 
189 "J18" 92.09277 82.77409 62.62455 64.20395 67.11948 43.22986 
190 "J19" 44.66316 45.77401 26.36454 15.13284 17.47040 8.729453 
191 "K1" 53.33181 99.81079 37.52651 48.38123 77.50982 24.15873 
192 "K2" 40.00153 12.06226 62.54520 13.14258 7.250013 34.27039 
193 "K3" 50.74388 31.09789 54.00015 17.33300 13.03877 26.16224 
194 "K4" 58.18112 61.78531 12.22248 25.43300 31.42295 6.880967 
195 "K5" 8.995193 57.26864 14.60288 11.86475 21.67450 6.171125 
196 "K6" 9.388876 89.17220 63.75982 35.18213 58.39059 44.40040 
197 "K7" 100.0000 100.0000 100.0000 95.10649 100.0000 108.8440 
198 "K8" 23.54467 66.32029 64.78523 23.65806 32.78187 41.28872 
199 "K9" 23.36309 47.36553 34.33585 11.28857 16.11277 12.42325 
200 "K10" 67.91791 47.44793 46.88029 28.20175 24.68560 21.59325 
201 "K11" 84.95460 68.62287 85.87472 57.05588 50.96051 74.04733 
202 "K12" 93.33333 93.33333 93.33333 81.46035 85.64427 93.20584 
203 "K13" 31.48852 11.59380 11.68688 4.978354 3.690752 2.513020 
204 "K14" 76.16693 59.41405 18.10636 34.61379 34.65605 8.303565 
205 "K15" 45.66873 74.40452 17.61044 26.83119 41.23575 9.855324 
206 "K16" 13.40658 62.80919 41.80819 16.74083 27.32763 18.92237 
207 "K17" 5.011063 53.73465 82.60624 21.61894 23.43922 65.04704 
208 "K18" 17.00160 27.94537 54.51591 8.863649 7.856126 26.10429 
209 "K19" 48.32837 74.67765 69.24544 35.25895 44.95279 48.65271 
210 "L1" 6.149386 60.43488 58.73198 18.09645 26.19246 33.43892 
211 "L2" 37.49599 65.21553 87.53033 32.50489 35.83260 75.34117 
212 "L3" 63.55840 87.52422 70.83848 50.16355 64.24515 53.71925 
213 "L4" 79.18669 90.66453 40.31739 55.85557 71.07370 24.29475 
214 "L5" 13.77584 90.62333 22.35294 30.73924 58.27545 14.32304 
215 "L6" 11.83337 89.93057 89.23781 43.16881 62.44846 83.00770 
216 "L7" 96.40650 19.19432 88.95857 53.36311 28.02367 75.31542 
217 "L8" 1.667811 85.46120 39.00969 28.10851 51.52801 21.13353 
218 "L9" 87.83551 10.37003 14.98436 32.15418 17.58013 4.393197 
219 "L10" 81.21920 10.42191 86.58122 39.77832 20.06468 70.23009 
220 "L11" 88.09949 42.99382 13.98032 37.42716 27.88155 5.895721 
221 "L12" 59.23095 7.731746 23.33715 14.68019 8.321867 5.859104 
222 "L13" 84.42054 35.68017 85.50698 45.06248 27.76382 69.56100 
223 "L14" 26.67582 60.47761 9.129473 14.99454 25.23056 5.757627 
224 "L15" 77.11910 63.26085 53.88571 40.88066 39.85065 29.98915 
225 "L16" 10.94682 30.87968 87.76684 17.51712 12.05977 71.96663 
226 "L17" 55.04387 97.13741 17.79965 45.38790 73.01966 15.06182 
227 "L18" 34.08103 58.31540 45.36202 18.57961 25.42885 21.05393 
228 "L19" 45.20180 18.23911 20.75227 9.655836 6.854514 4.999815 
END_DATA
