src/input/input_example.ti1
CTI1   

DESCRIPTOR "Argyll Calibration Target chart information 1"
ORIGINATOR "Argyll targen"
CREATED "Sun Aug 31 15:54:28 2025"
APPROX_WHITE_POINT "95.106486 100.000000 108.844025"
COLOR_REP "iRGB"
WHITE_COLOR_PATCHES "2"
BLACK_COLOR_PATCHES "2"
COMP_GREY_STEPS "16"
OFPS_PATCHES "210"

NUMBER_OF_FIELDS 7
BEGIN_DATA_FORMAT
SAMPLE_ID RGB_R RGB_G RGB_B XYZ_X XYZ_Y XYZ_Z 
END_DATA_FORMAT

NUMBER_OF_SETS 228
BEGIN_DATA
1 0.00000 0.00000 0.00000 1.000000 1.000000 1.000000 
2 67.11521 76.88274 54.91490 41.90331 50.57011 32.99722 
3 82.97006 90.29133 12.22324 56.09015 71.05460 12.91645 
4 100.0000 100.0000 100.0000 95.10649 100.0000 108.8440 
5 37.59987 13.49741 87.94620 19.69820 9.954166 71.76616 
6 86.66667 86.66667 86.66667 69.04418 72.58246 78.97718 
7 80.00000 80.00000 80.00000 57.82407 60.77891 66.11917 
8 73.33333 73.33333 73.33333 47.76462 50.19637 54.59125 
9 66.66667 66.66667 66.66667 38.82872 40.79580 44.35090 
10 60.00000 60.00000 60.00000 30.97732 32.53613 35.35337 
11 53.33333 53.33333 53.33333 24.16914 25.37393 27.55134 
12 46.66667 46.66667 46.66667 18.36029 19.26302 20.89453 
13 40.00000 40.00000 40.00000 13.50377 14.15396 15.32905 
14 33.33333 33.33333 33.33333 9.548794 9.993329 10.79674 
15 26.66667 26.66667 26.66667 6.439866 6.722738 7.233970 
16 20.00000 20.00000 20.00000 4.115373 4.277372 4.570151 
17 13.33333 13.33333 13.33333 2.505355 2.583633 2.725105 
18 6.666667 6.666667 6.666667 1.527504 1.554934 1.604508 
19 0.00000 100.0000 0.00000 36.40521 71.80052 12.80184 
20 0.00000 0.00000 100.0000 18.87111 8.147314 95.12896 
21 100.0000 0.00000 100.0000 59.70128 29.19948 97.04219 
22 100.0000 100.0000 0.00000 77.23538 92.85269 14.71507 
23 100.0000 0.00000 0.00000 41.83017 22.05217 2.913230 
24 0.00000 100.0000 100.0000 54.27632 78.94783 106.9308 
25 0.00000 51.20674 100.0000 26.85077 24.10441 97.78887 
26 100.0000 50.20192 0.00000 49.47468 37.33905 5.461421 
27 100.0000 0.00000 50.73011 45.77721 23.63073 23.70267 
28 0.00000 100.0000 50.74200 40.35425 73.37988 33.60183 
29 51.23082 100.0000 0.00000 45.61694 76.55011 13.23348 
30 49.15266 0.00000 100.0000 27.29363 12.49000 95.52362 
31 0.00000 22.07369 0.00000 2.413998 3.827601 1.471337 
32 0.00000 0.00000 74.37986 10.16632 4.665949 49.27995 
33 100.0000 68.10367 100.0000 74.62303 59.03882 102.0162 
34 49.54298 0.00000 0.00000 9.567615 5.417490 1.401464 
35 100.0000 100.0000 76.33168 86.94846 96.73731 65.87488 
36 69.60650 100.0000 100.0000 72.33979 88.26142 107.7772 
37 0.00000 0.00000 23.64906 1.815539 1.326164 5.295526 
38 100.0000 100.0000 51.25505 81.27143 94.46685 35.97335 
39 100.0000 33.88187 100.0000 63.02766 35.85132 98.15099 
40 0.00000 25.20241 48.02828 6.337180 6.062301 20.08218 
41 49.93962 75.67420 0.00000 28.59056 43.23705 7.699836 
42 47.15520 0.00000 24.48368 9.575256 5.320487 5.957576 
43 72.69657 100.0000 28.01133 57.44370 82.51620 19.73738 
44 53.83070 28.06077 100.0000 31.39470 17.96751 96.36495 
45 100.0000 73.37757 47.93399 62.94016 58.67937 27.18000 
46 0.00000 49.08578 0.00000 8.282023 15.56201 3.427361 
47 35.64374 100.0000 100.0000 58.53724 81.14478 107.1305 
48 50.42444 100.0000 74.79052 54.58563 80.10104 62.09670 
49 42.88701 55.74833 100.0000 34.75964 30.58755 98.62376 
50 0.00000 69.91870 76.83991 26.67866 36.57868 58.19912 
51 24.22869 0.00000 0.00000 2.953427 2.007193 1.091534 
52 24.46830 100.0000 0.00000 38.39664 72.82730 12.89515 
53 75.72719 0.00000 73.17249 31.63743 15.77458 48.56858 
54 0.00000 100.0000 76.27217 46.10135 75.67836 63.87240 
55 0.00000 72.09491 26.12813 18.92998 35.26792 11.87112 
56 100.0000 38.59101 50.86759 50.16256 32.36311 25.27893 
57 74.51737 0.00000 100.0000 39.90005 18.98991 96.11434 
58 0.00000 26.23207 100.0000 20.85198 12.10851 95.78926 
59 25.78651 0.00000 72.47984 11.85990 5.598687 46.67305 
60 100.0000 76.49149 0.00000 61.16349 60.71340 9.357724 
61 37.13362 100.0000 25.31963 41.97813 74.56610 17.92953 
62 61.05874 26.49633 0.00000 16.53730 12.01004 2.306936 
63 0.00000 77.77294 100.0000 38.93756 48.27460 101.8178 
64 100.0000 0.00000 26.02177 42.81421 22.44572 8.096249 
65 100.0000 25.25135 0.00000 43.66728 25.72588 3.525606 
66 24.52258 48.41835 0.00000 10.07025 16.16959 3.450460 
67 25.30297 72.90527 0.00000 20.49275 36.82311 6.888257 
68 100.0000 100.0000 26.01496 78.21890 93.24603 19.89540 
69 0.00000 50.12366 34.90424 10.40430 16.94949 12.94424 
70 100.0000 0.00000 77.64271 51.92092 26.08783 56.06226 
71 0.00000 100.0000 26.43209 37.42027 72.20648 18.14825 
72 25.38761 0.00000 47.00185 6.489041 3.442935 18.73375 
73 100.0000 78.60691 76.28756 72.08284 67.03032 60.85763 
74 24.33538 0.00000 100.0000 20.84140 9.163205 95.22128 
75 64.02282 100.0000 51.18710 55.43622 81.14748 34.70226 
76 81.65584 47.05259 100.0000 51.33493 34.75209 98.55465 
77 36.52213 38.75662 86.95677 22.90373 17.32017 71.25295 
78 0.00000 75.44487 0.00000 19.74630 38.48737 7.248820 
79 24.31968 81.55383 100.0000 43.16189 53.80164 102.6622 
80 100.0000 28.20644 28.29762 45.28308 27.09609 9.803406 
81 75.96821 100.0000 0.00000 58.36089 83.12094 13.83064 
82 38.01898 88.14746 40.23685 34.87777 57.66418 22.75815 
83 0.00000 48.55236 65.68555 15.06403 18.00303 39.98572 
84 0.00000 28.62168 22.69938 4.111165 6.016475 5.753263 
85 73.69370 46.68041 30.15349 29.37116 25.17475 11.10539 
86 100.0000 24.76969 72.24512 52.18834 29.02449 48.74391 
87 60.41360 13.64551 69.07735 22.56668 12.09511 42.75758 
88 40.04217 60.38151 65.84033 24.86158 29.46797 41.87323 
89 72.30455 0.00000 24.06984 21.50425 11.47443 6.367092 
90 64.38920 58.98156 100.0000 44.93008 37.70377 99.46174 
91 21.55041 0.00000 24.32292 3.418893 2.147540 5.610695 
92 33.38853 23.15194 49.40321 9.999281 7.509857 21.32261 
93 0.00000 74.63550 52.29109 23.51472 39.27983 29.30147 
94 28.19064 100.0000 49.97666 42.86403 74.68871 33.05256 
95 67.70503 69.28975 38.60206 35.69385 41.64523 18.56870 
96 27.68419 68.17624 29.99354 19.80876 32.74461 12.99581 
97 75.79295 0.00000 0.00000 22.84249 12.26206 2.023501 
98 100.0000 53.64766 72.91348 59.42682 43.21421 52.03638 
99 40.83037 23.79369 0.00000 8.300699 7.190803 1.810491 
100 83.78144 40.87579 61.70768 39.33281 27.37261 35.81822 
101 75.46123 73.31795 0.00000 40.21497 47.31872 7.875482 
102 49.28333 50.35521 0.00000 17.16603 20.75568 3.961987 
103 60.92438 42.44416 67.19439 27.09540 21.52510 41.91342 
104 79.46696 22.02855 100.0000 44.56665 23.48632 96.73650 
105 100.0000 63.45810 25.16235 55.51149 47.93779 12.01707 
106 24.10515 100.0000 77.91440 48.50928 76.86508 66.45927 
107 27.10628 28.27658 100.0000 23.61059 14.00613 96.01026 
108 77.13478 100.0000 73.95480 68.17270 87.13319 61.53203 
109 50.36920 80.83324 100.0000 49.63270 56.48365 102.8391 
110 0.00000 28.01082 74.52667 12.46471 9.197317 50.24584 
111 80.34317 80.13319 100.0000 65.22229 63.89328 103.4483 
112 0.00000 0.00000 50.52822 4.913108 2.564996 21.61074 
113 63.77023 41.42177 13.28971 21.22509 18.91195 4.882693 
114 8.528299 39.25503 14.29471 6.165742 10.33663 4.219087 
115 76.01709 0.00000 48.09743 26.50527 13.74369 20.55975 
116 74.19834 52.23445 0.00000 30.15944 28.39911 4.753052 
117 58.15090 82.64584 27.95006 37.27813 53.70996 15.21284 
118 50.94864 0.00000 48.97790 13.76040 7.156167 20.69493 
119 93.16914 86.66832 33.30041 62.99162 70.77059 19.69647 
120 85.76774 33.77588 36.64538 35.11687 23.26715 13.85967 
121 56.63768 57.07658 32.10434 24.07162 27.72289 12.82197 
122 36.22379 82.87685 85.06344 40.94130 54.51208 74.17542 
123 80.20324 92.73179 58.15294 60.94123 75.56365 40.10065 
124 47.97873 27.89128 74.75835 20.50437 13.30656 50.95165 
125 71.37182 29.32833 56.78253 27.62068 17.81816 29.29087 
126 20.89672 54.22041 100.0000 29.37526 26.97315 98.20966 
127 53.09746 14.88095 39.20777 13.91701 8.412681 13.68518 
128 42.87709 46.67445 73.07583 22.63007 20.83017 49.88236 
129 20.75067 24.32305 0.00000 4.155960 5.160335 1.636847 
130 20.66073 77.51243 52.71806 26.64365 43.28357 30.30338 
131 13.24741 38.08362 69.59840 13.79287 12.97838 44.07685 
132 10.51244 38.03192 40.88460 8.159853 10.68268 15.52923 
133 87.04189 50.91726 47.94722 42.18833 33.53084 23.42944 
134 50.04806 0.00000 76.04205 19.38829 9.367105 52.13667 
135 54.59206 69.87434 83.20134 39.16052 42.75825 68.84130 
136 81.04089 26.43131 0.00000 28.39173 18.10762 2.859595 
137 69.96194 30.48757 40.73145 24.41581 16.76435 15.74392 
138 13.43900 11.37676 86.90473 15.09927 7.411716 69.65921 
139 79.02092 27.09056 18.96306 27.62967 17.80277 5.648362 
140 77.43244 52.92922 73.25324 41.34760 33.50318 51.59352 
141 40.69781 73.37270 53.87600 28.73990 40.92541 30.82643 
142 20.07733 44.43617 87.72665 21.52396 18.77424 72.97834 
143 73.39847 75.49806 22.30899 40.83443 49.32011 12.04805 
144 13.35034 46.45164 55.65819 12.95027 16.20078 28.61997 
145 10.62522 22.99569 33.13644 4.583873 4.933264 9.978289 
146 40.71740 35.24185 11.75550 10.47309 11.21339 3.687383 
147 61.38087 12.88624 88.80315 28.86114 14.57961 73.72745 
148 95.65063 39.50097 74.66781 51.73343 32.88815 52.95520 
149 24.47478 57.61667 77.48220 23.35480 26.67797 57.43592 
150 40.00486 58.31692 17.38655 17.47797 25.16776 7.189886 
151 31.20507 84.18441 20.08050 28.81219 50.85472 12.28375 
152 91.35262 62.60722 10.05838 46.82047 42.98628 7.638851 
153 85.65908 76.53624 43.24819 51.91430 55.65800 23.55795 
154 61.35254 18.82492 13.24836 15.98964 10.24929 3.478429 
155 62.95888 56.09286 82.11099 36.63334 32.49043 65.18516 
156 95.51854 19.87331 53.62795 43.40180 24.06629 26.56417 
157 28.28397 26.88015 72.75716 14.46023 10.01688 47.77702 
158 55.27810 85.62854 46.68926 40.08200 57.74339 27.19628 
159 64.77087 86.71226 7.388589 42.14236 60.23823 10.87090 
160 93.36988 63.14163 61.23350 54.51432 46.63362 38.20167 
161 19.41465 87.90374 38.63196 30.91748 55.39898 21.49394 
162 61.17964 42.19728 91.82054 34.56796 24.42297 80.94685 
163 9.845696 87.62029 6.160377 27.73022 53.71530 10.24200 
164 69.39469 30.96830 79.05700 32.21513 19.98437 58.10747 
165 10.95077 7.791041 38.45953 3.903561 2.608368 12.61840 
166 66.22234 12.87715 53.14396 22.07130 12.15193 24.93180 
167 47.86684 93.12385 60.28870 44.82538 67.62886 41.71461 
168 70.76385 12.92133 36.90458 22.28090 12.53766 12.61816 
169 84.68507 14.59636 66.78073 36.89485 19.65565 40.51511 
170 37.90823 88.34443 3.775808 32.63046 56.97708 10.41309 
171 31.89654 41.22145 57.04073 14.49615 14.80927 29.66521 
172 32.20496 86.44231 67.21280 37.22124 56.60138 48.17416 
173 48.90592 70.19338 38.85169 27.52356 38.10205 18.47260 
174 34.47454 12.25690 35.48624 7.315725 4.772480 11.08328 
175 14.88462 78.64852 75.67180 31.89250 46.36444 58.07120 
176 66.91228 81.60609 90.10597 54.01180 59.87874 83.54299 
177 25.07269 38.83426 18.38824 8.015130 11.11852 5.235440 
178 11.98374 74.79946 15.70266 20.31586 38.20765 9.156542 
179 55.33305 32.46745 29.24906 16.18229 13.20608 9.075091 
180 12.23220 12.61060 63.75602 8.588730 4.925212 35.47634 
181 0.00000 0.00000 0.00000 1.000000 1.000000 1.000000 
182 84.78529 60.97542 34.56755 42.53231 39.55445 15.42942 
183 14.16558 68.40020 89.39748 30.65079 37.04529 79.05709 
184 89.87348 56.43281 91.85513 57.64484 43.13489 83.40924 
185 94.37869 79.37279 17.19731 58.25379 61.64114 12.03552 
186 89.19570 14.66894 36.54376 35.13613 19.36425 13.04544 
187 100.0000 50.48492 36.05864 51.47866 38.29017 15.55507 
188 54.55814 92.74485 89.06294 55.14527 71.61456 83.82666 
189 92.09306 82.77352 62.62445 64.20395 67.11948 43.22986 
190 44.66301 45.77464 26.36453 15.13284 17.47040 8.729453 
191 53.33109 99.81119 37.52632 48.38123 77.50982 24.15873 
192 40.00193 12.06260 62.54456 13.14258 7.250013 34.27039 
193 50.74323 31.09809 53.99958 17.33300 13.03877 26.16224 
194 58.18054 61.78482 12.22281 25.43300 31.42295 6.880967 
195 8.995828 57.26797 14.60222 11.86475 21.67450 6.171125 
196 9.389244 89.17180 63.75967 35.18213 58.39059 44.40040 
197 100.0000 100.0000 100.0000 95.10649 100.0000 108.8440 
198 23.54477 66.31963 64.78469 23.65806 32.78187 41.28872 
199 23.36246 47.36477 34.33590 11.28857 16.11277 12.42325 
200 67.91756 47.44788 46.88027 28.20175 24.68560 21.59325 
201 84.95473 68.62220 85.87531 57.05588 50.96051 74.04733 
202 93.33333 93.33333 93.33333 81.46035 85.64427 93.20584 
203 31.48808 11.59317 11.68623 4.978354 3.690752 2.513020 
204 76.16669 59.41481 18.10665 34.61379 34.65605 8.303565 
205 45.66841 74.40441 17.61006 26.83119 41.23575 9.855324 
206 13.40639 62.80932 41.80876 16.74083 27.32763 18.92237 
207 5.011439 53.73451 82.60700 21.61894 23.43922 65.04704 
208 17.00172 27.94582 54.51573 8.863649 7.856126 26.10429 
209 48.32881 74.67731 69.24569 35.25895 44.95279 48.65271 
210 6.148741 60.43423 58.73156 18.09645 26.19246 33.43892 
211 37.49541 65.21544 87.53022 32.50489 35.83260 75.34117 
212 63.55828 87.52419 70.83902 50.16355 64.24515 53.71925 
213 79.18610 90.66449 40.31693 55.85557 71.07370 24.29475 
214 13.77604 90.62364 22.35342 30.73924 58.27545 14.32304 
215 11.83374 89.93050 89.23749 43.16881 62.44846 83.00770 
216 96.40644 19.19397 88.95853 53.36311 28.02367 75.31542 
217 1.667660 85.46092 39.00935 28.10851 51.52801 21.13353 
218 87.83533 10.37059 14.98430 32.15418 17.58013 4.393197 
219 81.21958 10.42214 86.58101 39.77832 20.06468 70.23009 
220 88.09884 42.99403 13.98082 37.42716 27.88155 5.895721 
221 59.23083 7.731440 23.33640 14.68019 8.321867 5.859104 
222 84.42042 35.67946 85.50686 45.06248 27.76382 69.56100 
223 26.67560 60.47817 9.130093 14.99454 25.23056 5.757627 
224 77.11948 63.26126 53.88608 40.88066 39.85065 29.98915 
225 10.94651 30.88002 87.76756 17.51712 12.05977 71.96663 
226 55.04423 97.13722 17.80012 45.38790 73.01966 15.06182 
227 34.08057 58.31545 45.36211 18.57961 25.42885 21.05393 
228 45.20168 18.23835 20.75179 9.655836 6.854514 4.999815 
END_DATA
CTI1   

DESCRIPTOR "Argyll Calibration Target chart information 1"
ORIGINATOR "Argyll targen"
DENSITY_EXTREME_VALUES "8"
CREATED "August 31, 2025"

NUMBER_OF_FIELDS 7
BEGIN_DATA_FORMAT
INDEX RGB_R RGB_G RGB_B XYZ_X XYZ_Y XYZ_Z 
END_DATA_FORMAT

NUMBER_OF_SETS 8
BEGIN_DATA
0 100.0000 100.0000 100.0000 95.10649 100.0000 108.8440 
1 0.00000 47.36069 100.0000 25.61297 21.62916 97.37627 
2 100.0000 0.00000 79.35138 52.42580 26.28975 58.72152 
3 0.00000 0.00000 58.99714 6.485834 3.193987 29.89445 
4 100.0000 66.65930 0.00000 56.05879 50.50543 7.656144 
5 0.00000 35.60114 0.00000 4.685619 8.370208 2.228550 
6 84.44436 0.00000 0.00000 28.84279 15.35583 2.304665 
7 0.00000 0.00000 0.00000 1.000000 1.000000 1.000000 
END_DATA
CTI1   

DESCRIPTOR "Argyll Calibration Target chart information 1"
ORIGINATOR "Argyll targen"
DEVICE_COMBINATION_VALUES "9"
CREATED "August 31, 2025"

NUMBER_OF_FIELDS 7
BEGIN_DATA_FORMAT
INDEX RGB_R RGB_G RGB_B XYZ_X XYZ_Y XYZ_Z 
END_DATA_FORMAT

NUMBER_OF_SETS 9
BEGIN_DATA
0 100.0000 100.0000 100.0000 95.10649 100.0000 108.8440 
1 0.00000 100.0000 100.0000 54.27632 78.94783 106.9308 
2 100.0000 0.00000 100.0000 59.70128 29.19948 97.04219 
3 0.00000 0.00000 100.0000 18.87111 8.147314 95.12896 
4 100.0000 100.0000 0.00000 77.23538 92.85269 14.71507 
5 0.00000 100.0000 0.00000 36.40521 71.80052 12.80184 
6 100.0000 0.00000 0.00000 41.83017 22.05217 2.913230 
7 0.00000 0.00000 0.00000 1.000000 1.000000 1.000000 
8 50.00000 50.00000 50.00000 21.14266 22.19007 24.08306 
END_DATA
